svg/furkot/freepik/forest.svg

<svg viewBox="0 0 512 512" xmlns="http://www.w3.org/2000/svg"><path d="m156.535 314.743c-7.873-3.925-14.222-10.513-17.669-19.091-5.621-14.029-2.173-29.822 8.772-40.255l63.238-60.223c-3.823-3.549-6.918-7.919-9.011-12.959-5.701-13.778-2.56-29.491 7.975-40.016l70.486-71.509-66.822-66.833c-5.143-5.143-13.494-5.143-18.614 0l-66.844 66.833c-3.767 3.766-4.893 9.626-2.845 14.552 2.037 4.916 6.849 8.329 12.163 8.329h11.685c1.433 0 2.731.683 3.265 2.014.546 1.342.216 2.776-.83 3.766l-82.398 78.438c-3.903 3.721-5.132 9.307-3.14 14.313 2.002 4.995 6.849 8.158 12.219 8.158h23.746c1.422 0 2.696.945 3.254 2.253.546 1.32.261 2.879-.74 3.891l-98.782 100.33c-3.732 3.777-4.812 9.295-2.776 14.199 2.06 4.892 6.85 7.953 12.152 7.953h127.454z"/><path d="m517.427 408.781-104.835-106.428c-1.058-1.092-1.354-2.685-.773-4.073s1.934-2.31 3.459-2.31h25.19c5.723 0 10.843-3.47 12.993-8.772 2.117-5.302.785-11.367-3.356-15.315l-87.45-83.274c-1.115-1.058-1.467-2.594-.876-4.027.569-1.423 1.946-2.276 3.47-2.276h12.402c5.644 0 10.729-3.481 12.914-8.704 2.15-5.222.956-11.264-3.038-15.269l-70.906-70.929c-2.708-2.719-6.303-4.096-9.876-4.096-3.561 0-7.157 1.365-9.865 4.073l-70.895 70.907c-4.005 3.993-5.188 10.08-3.037 15.303 2.15 5.234 7.259 8.704 12.913 8.704h12.379c1.525 0 2.913.853 3.471 2.275.591 1.423.239 3.004-.877 4.062l-87.46 83.251c-4.119 3.96-5.45 10.001-3.323 15.303 2.128 5.314 7.259 8.773 12.971 8.773h25.202c1.513 0 2.878.91 3.458 2.309.581 1.4.274 3.004-.785 4.074l-104.834 106.427c-3.949 4.028-5.098 10.013-2.936 15.201 2.173 5.2 7.259 8.568 12.891 8.568h141.221c7.714 0 13.528 6.269 13.528 13.983v63.124c0 7.714 6.702 13.642 14.416 13.642h63.135c7.714 0 14.2-5.928 14.2-13.642v-63.124c0-7.714 6.019-13.983 13.744-13.983h141.232c5.644 0 10.696-3.38 12.903-8.568 2.127-5.188.978-11.173-2.97-15.189z"/></svg>

<svg xmlns="http://www.w3.org/2000/svg" viewBox="0 0 512 512"><path d="M156.535 314.743C148.662 310.818 142.313 304.23 138.866 295.652 133.245 281.623 136.693 265.83 147.638 255.397L210.876 195.174C207.053 191.625 203.958 187.255 201.865 182.215 196.164 168.437 199.305 152.724 209.84 142.199L280.326 70.69 213.504 3.857C208.361-1.286 200.01-1.286 194.89 3.857L128.046 70.69C124.279 74.456 123.153 80.316 125.201 85.242 127.238 90.158 132.05 93.571 137.364 93.571H149.049C150.482 93.571 151.78 94.254 152.314 95.585 152.86 96.927 152.53 98.361 151.484 99.351L69.086 177.789C65.183 181.51 63.954 187.096 65.946 192.102 67.948 197.097 72.795 200.26 78.165 200.26H101.911C103.333 200.26 104.607 201.205 105.165 202.513 105.711 203.833 105.426 205.392 104.425 206.404L5.643 306.734C1.911 310.511 0.831 316.029 2.867 320.933 4.927 325.825 9.717 328.886 15.019 328.886H142.473L156.535 314.743Z"/><path d="M517.427 408.781L412.592 302.353C411.534 301.261 411.238 299.668 411.819 298.28S413.753 295.97 415.278 295.97H440.468C446.191 295.97 451.311 292.5 453.461 287.198 455.578 281.896 454.246 275.831 450.105 271.883L362.655 188.609C361.54 187.551 361.188 186.015 361.779 184.582 362.348 183.159 363.725 182.306 365.249 182.306H377.651C383.295 182.306 388.38 178.825 390.565 173.602 392.715 168.38 391.521 162.338 387.527 158.333L316.621 87.404C313.913 84.685 310.318 83.308 306.745 83.308 303.184 83.308 299.588 84.673 296.88 87.381L225.985 158.288C221.98 162.281 220.797 168.368 222.948 173.591 225.098 178.825 230.207 182.295 235.861 182.295H248.24C249.765 182.295 251.153 183.148 251.711 184.57 252.302 185.993 251.95 187.574 250.834 188.632L163.374 271.883C159.255 275.843 157.924 281.884 160.051 287.186 162.179 292.5 167.31 295.959 173.022 295.959H198.224C199.737 295.959 201.102 296.869 201.682 298.268 202.263 299.668 201.956 301.272 200.897 302.342L96.063 408.769C92.114 412.797 90.965 418.782 93.127 423.97 95.3 429.17 100.386 432.538 106.018 432.538H247.239C254.953 432.538 260.767 438.807 260.767 446.521V509.645C260.767 517.359 267.469 523.287 275.183 523.287H338.318C346.032 523.287 352.518 517.359 352.518 509.645V446.521C352.518 438.807 358.537 432.538 366.262 432.538H507.494C513.138 432.538 518.19 429.158 520.397 423.97 522.524 418.782 521.375 412.797 517.427 408.781Z"/></svg>
